X:8120
T:John MacLean's Fancy
R:pipe jig
C:Brenda Stubbert
S:Tune ofthe Month, Mar. 2000
A:http://www.capebretonisland.com/Music/Stubbert
N:Contacts ...
N:Recordings and bookings
N:..... <brenda@cranfordpub.com
N:Tune books and related recordings
N:..... Cranford Publications <http://www.cranfordpub.com>
Z:Paul Stewart Cranford 
Q:333
L:1/8
M:6/8
K:Amix
a|AAA cBc|AAA fga|AAA cBA|c<ec BGB|!
AAA cBc|AAA fga|eac dcB|ABG A2:|!
|:g|aee fdd|ecc cBA|aee gd=c|BGB deg|!
aee fdd|ecc cBA|c<ec dBg|ABG A2:|]!
